X: 85
T: O pulcherrima mulierum
C: Gaspar van Weerbeke
%%abc-version 2.0
%%abcx-abcm2ps-target-version 5.9.1 (29 Sep 2008)
%%abc-creator hum2abc beta
%%abcx-conversion-date 2022/03/06 13:05:57
%%abc-copyright Copyright 2008, Pavanello, Agnese
%%abc-edited-by Mair-Gruber, Roland
%%humdrum-veritas 697490977
%%humdrum-veritas-data 2842183775
%%linebreak <none>
%%barnumbers 0
L: 1/4
M: 2/2
N: Derived from Gas0410-O_pulcherrima_mulierum.krn
%%staves [1 2 3 4]
V: 1 clef=treble
V: 2 clef=treble-8
V: 3 clef=treble-8
V: 4 clef=bass
K: C
[V:1] z4 | 
[V:2] e2e2 | 
[V:3] E2E2 | 
[V:4] E,2E,2 | 
[V:1] z4 | 
[V:2] e3e | 
[V:3] E>FGA- | 
[V:4] C,4 | 
[V:1] z4 | 
[V:2] d2c2 | 
[V:3] A^GA2 | 
[V:4] B,,2A,,2 | 
[V:1] z4 | 
[V:2] z2G2 | 
[V:3] c4 | 
[V:4] E,4 | 
[V:1] z4 | 
[V:2] F2EF- | 
[V:3] B2AB- | 
[V:4] D,2C,D,- | 
[V:1] z4 | 
[V:2] F/E/D/C/D2 | 
[V:3] B/A/^G/^F/^G2 | 
[V:4] D,/C,/B,,/A,,/B,,2 | 
[V:1] E2E2 | 
[V:2] E2A2 | 
[V:3] A2E2 | 
[V:4] A,,4 | 
[V:1] E>FGA- | 
[V:2] GE2d | 
[V:3] zc2A | 
[V:4] C,>D,E,F, | 
[V:1] A^GA2 | 
[V:2] e2c2- | 
[V:3] B2A2 | 
[V:4] E,2F,2 | 
[V:1] c4 | 
[V:2] c2G3/A/ | 
[V:3] e4 | 
[V:4] C,4 | 
[V:1] B2AB- | 
[V:2] B/c/d/e/fg- | 
[V:3] d2cd- | 
[V:4] G,2A,G,- | 
[V:1] B/A/^G/^F/G2 | 
[V:2] ge3 | 
[V:3] d/c/B/A/B2 | 
[V:4] G,A,E,2 | 
[V:1] A4 | 
[V:2] c4 | 
[V:3] A4 | 
[V:4] F,4 | 
[V:1] z2G2 | 
[V:2] e2e2 | 
[V:3] c2c2 | 
[V:4] E,2C,2 | 
[V:1] G2G2 | 
[V:2] e2c2 | 
[V:3] c2c2 | 
[V:4] C,2C,2 | 
[V:1] E2C2 | 
[V:2] G2gg- | 
[V:3] c4 | 
[V:4] C,4 | 
[V:1] z2G2 | 
[V:2] gge2 | 
[V:3] c2c2- | 
[V:4] C,2C,D,/E,/ | 
[V:1] A2GE- | 
[V:2] c2zG- | 
[V:3] ccc2 | 
[V:4] F,2E,2 | 
[V:1] ECF2 | 
[V:2] GA2B | 
[V:3] c2d2 | 
[V:4] C,A,,D,2 | 
[V:1] EG>Ac- | 
[V:2] cCD3/E/ | 
[V:3] e3c | 
[V:4] C,2z2 | 
[V:1] cBc2 | 
[V:2] G2C2 | 
[V:3] d2c2 | 
[V:4] G,,2A,,2 | 
[V:1] z2c2 | 
[V:2] c3d | 
[V:3] C2E2- | 
[V:4] A,,4- | 
[V:1] c3B/A/ | 
[V:2] e2A2 | 
[V:3] E2^F3/E/ | 
[V:4] A,,4 | 
[V:1] !fermata!B4 | 
[V:2] !fermata!d4 | 
[V:3] !fermata!G4 | 
[V:4] !fermata!G,,4 | 
[V:1] B2c2 | 
[V:2] g2g2 | 
[V:3] d2e2 | 
[V:4] G,,2C,2 | 
[V:1] cc>BA | 
[V:2] e2cd | 
[V:3] c2A2 | 
[V:4] C,2F,2 | 
[V:1] G2c2 | 
[V:2] e2g2- | 
[V:3] Be2e | 
[V:4] E,C,>D,E,/F,/ | 
[V:1] B2AB- | 
[V:2] gf2d | 
[V:3] d2cB | 
[V:4] G,D,F,G,- | 
[V:1] B/A/G2^F | 
[V:2] Bcd2 | 
[V:3] G2A2 | 
[V:4] G,E,D,2 | 
[V:1] G4 | 
[V:2] B2zc | 
[V:3] G4 | 
[V:4] E,3C, | 
[V:1] z4 | 
[V:2] c>BG2 | 
[V:3] E2E3/F/ | 
[V:4] C,2C,2 | 
[V:1] E2E3/F/ | 
[V:2] zcc3/d/ | 
[V:3] G2A3/G/ | 
[V:4] C,2A,,2 | 
[V:1] G2A3/G/ | 
[V:2] e2c3/d/ | 
[V:3] E2z2 | 
[V:4] zE,F,3/E,/ | 
[V:1] E2z2 | 
[V:2] e/f<gf/d | 
[V:3] c2B2 | 
[V:4] C,>D, E,/F,/G,- | 
[V:1] c2B2 | 
[V:2] efd2 | 
[V:3] A2G2 | 
[V:4] G,F,G,2 | 
[V:1] A2G2 | 
[V:2] zfde | 
[V:3] c2BG | 
[V:4] zF,G,E, | 
[V:1] c>ABG- | 
[V:2] cfde | 
[V:3] A2G3/A/ | 
[V:4] F,2G,E,- | 
[V:1] GF/E/D2 | 
[V:2] g2g2 | 
[V:3] Bc2B | 
[V:4] E,C,G,2 | 
[V:1] C2z2 | 
[V:2] e2c3/d/ | 
[V:3] c2z2 | 
[V:4] z2E,2 | 
[V:1] z4 | 
[V:2] ef2e- | 
[V:3] z4 | 
[V:4] C,D,E,2 | 
[V:1] z4 | 
[V:2] ede2 | 
[V:3] z4 | 
[V:4] F,2E,2 | 
[V:1] z4 | 
[V:2] f2ec- | 
[V:3] z4 | 
[V:4] A,2G,E,- | 
[V:1] z4 | 
[V:2] c/B/A2^G | 
[V:3] z4 | 
[V:4] E,C,B,,2 | 
[V:1] z4 | 
[V:2] A2z2 | 
[V:3] E2C3/D/ | 
[V:4] A,,4 | 
[V:1] E2C3/D/ | 
[V:2] G2A3/B/ | 
[V:3] E2F2 | 
[V:4] z4 | 
[V:1] E2F2 | 
[V:2] c2Ad | 
[V:3] E2A2 | 
[V:4] C,2D,2 | 
[V:1] E2A2 | 
[V:2] Bed2 | 
[V:3] GEF2 | 
[V:4] E,C,D,2 | 
[V:1] GE2D | 
[V:2] BGA2 | 
[V:3] E2z2 | 
[V:4] E,G,F,2 | 
[V:1] E2z2 | 
[V:2] B2ce | 
[V:3] z4 | 
[V:4] E,2A,3/G,/ | 
[V:1] z4 | 
[V:2] fde2 | 
[V:3] A2BB | 
[V:4] F,2E,2 | 
[V:1] A2BB | 
[V:2] ze>fg- | 
[V:3] c>BG2 | 
[V:4] A,,2zE,- | 
[V:1] c>BG2 | 
[V:2] gadg | 
[V:3] c2B2 | 
[V:4] E,F,G,2 | 
[V:1] c2B2 | 
[V:2] feg2 | 
[V:3] Ae2d | 
[V:4] A,2E,G, | 
[V:1] AB>AG/F/ | 
[V:2] fg>fe/d/ | 
[V:3] cd2e | 
[V:4] A,G,2C,- | 
[V:1] EA2^G | 
[V:2] cde2 | 
[V:3] cAB2 | 
[V:4] C,F,E,2 | 
[V:1] A4 |]  
[V:2] e4 |]  
[V:3] A4 |]  
[V:4] A,,4 |]  


